style-guide/assets/xd-icons-images.svg

<?xml version="1.0" encoding="UTF-8"?>
<svg width="24px" height="24px" viewBox="0 0 24 24" version="1.1" xmlns="http://www.w3.org/2000/svg" xmlns:xlink="http://www.w3.org/1999/xlink">
    <!-- Generator: Sketch 51.3 (57544) - http://www.bohemiancoding.com/sketch -->
    <title>images</title>
    <desc>Created with Sketch.</desc>
    <defs>
        <path d="M12,14 C13.103,14 14,13.104 14,12 C14,10.896 13.103,10 12,10 C10.897,10 10,10.896 10,12 C10,13.104 10.897,14 12,14 M16,21 L14.414,21 L3,9.586 L3,8 L16,8 L16,21 Z M3,21 L3,12.414 L11.586,21 L3,21 Z M17,6 L2,6 C1.447,6 1,6.447 1,7 L1,22 C1,22.553 1.447,23 2,23 L17,23 C17.553,23 18,22.553 18,22 L18,7 C18,6.447 17.553,6 17,6 Z M22,1 L7,1 C6.447,1 6,1.447 6,2 C6,2.553 6.447,3 7,3 L21,3 L21,17 C21,17.553 21.447,18 22,18 C22.553,18 23,17.553 23,17 L23,2 C23,1.447 22.553,1 22,1" id="path-1"></path>
    </defs>
    <g id="images" stroke="none" stroke-width="1" fill="none" fill-rule="evenodd">
        <mask id="mask-2" fill="white">
            <use xlink:href="#path-1"></use>
        </mask>
        <use id="icons/24px/Images" fill="#000000" xlink:href="#path-1"></use>
    </g>
</svg>

<svg viewBox="0 0 24 24" xmlns="http://www.w3.org/2000/svg">
    <path d="M12 14c1.103 0 2-.896 2-2s-.897-2-2-2-2 .896-2 2 .897 2 2 2m4 7h-1.586L3 9.586V8h13v13zM3 21v-8.586L11.586 21H3zM17 6H2a1 1 0 0 0-1 1v15a1 1 0 0 0 1 1h15a1 1 0 0 0 1-1V7a1 1 0 0 0-1-1zm5-5H7a1 1 0 1 0 0 2h14v14a1 1 0 1 0 2 0V2a1 1 0 0 0-1-1"/>
</svg>
